src/images_karasa_jaga_svg/cmd/sc_basicshapes.octagon.svg

<svg height="16" viewBox="0 0 16 16" width="16" xmlns="http://www.w3.org/2000/svg" xmlns:xlink="http://www.w3.org/1999/xlink"><linearGradient id="a" gradientUnits="userSpaceOnUse" x1="8.003905" x2="119.99414" y1="64.000977" y2="64.000977"><stop offset="0" stop-color="#7c9fcf"/><stop offset=".5" stop-color="#7c9ece"/><stop offset="1" stop-color="#7b9dcf"/></linearGradient><linearGradient id="b" gradientUnits="userSpaceOnUse" x1="64" x2="64" y1="128" y2="0"><stop offset="0" stop-color="#fff"/><stop offset=".46428573" stop-color="#fff"/><stop offset=".78125" stop-color="#f1f1f1"/><stop offset=".90625" stop-color="#eaeaea"/><stop offset="1" stop-color="#dfdfdf"/></linearGradient><g transform="matrix(.125 0 0 .125 .000122 -.000122)"><path d="m45.998047 8.0058594a7.9953001 7.9953001 0 0 0 -5.652344 2.3417966l-30 30a7.9953001 7.9953001 0 0 0 -2.3417968 5.65625l.019531 37.900391a7.9953001 7.9953001 0 0 0 2.5273438 5.828125l29.980469 28.101558a7.9953001 7.9953001 0 0 0 5.466797 2.16211h36.001953a7.9953001 7.9953001 0 0 0 5.652344-2.34179l29.999996-30.000003a7.9953001 7.9953001 0 0 0 2.3418-5.652344v-36.001953a7.9953001 7.9953001 0 0 0 -2.3418-5.652344l-29.999996-30a7.9953001 7.9953001 0 0 0 -5.652344-2.3417966z" fill="url(#a)"/><path d="m81.999437 112.0018h-36.000674l-29.980272-28.100915-.020291-37.900322 30.000563-30.000563h36.000674l30.000563 30.000563v36.000675z" fill="url(#b)"/></g></svg>

<?xml version="1.0" encoding="UTF-8" standalone="no"?>
<svg
   xmlns:dc="http://purl.org/dc/elements/1.1/"
   xmlns:cc="http://creativecommons.org/ns#"
   xmlns:rdf="http://www.w3.org/1999/02/22-rdf-syntax-ns#"
   xmlns:svg="http://www.w3.org/2000/svg"
   xmlns="http://www.w3.org/2000/svg"
   xmlns:xlink="http://www.w3.org/1999/xlink"
   xmlns:sodipodi="http://sodipodi.sourceforge.net/DTD/sodipodi-0.dtd"
   xmlns:inkscape="http://www.inkscape.org/namespaces/inkscape"
   height="128"
   viewBox="0 0 128 128"
   width="128"
   version="1.1"
   id="svg31"
   sodipodi:docname="sc_basicshapes.octagon.svg"
   inkscape:version="0.92.3 (unknown)"
   inkscape:export-filename="/home/rizmut/Dokumen/Rizmut/Github/libreoffice-style-karasa-jaga/build/images_karasa_jaga/cmd/sc_basicshapes.octagon.png"
   inkscape:export-xdpi="12"
   inkscape:export-ydpi="12">
  <metadata
     id="metadata37">
    <rdf:RDF>
      <cc:Work
         rdf:about="">
        <dc:format>image/svg+xml</dc:format>
        <dc:type
           rdf:resource="http://purl.org/dc/dcmitype/StillImage" />
        <dc:title></dc:title>
      </cc:Work>
    </rdf:RDF>
  </metadata>
  <defs
     id="defs35">
    <linearGradient
       id="linearGradient3369">
      <stop
         id="stop3372"
         offset="0"
         style="stop-color:#ffffff;stop-opacity:1;" />
      <stop
         style="stop-color:#ffffff;stop-opacity:1;"
         offset="0.46428573"
         id="stop3374" />
      <stop
         style="stop-color:#f1f1f1;stop-opacity:1;"
         offset="0.78125"
         id="stop3376" />
      <stop
         id="stop3378"
         offset="0.90625"
         style="stop-color:#eaeaea;stop-opacity:1;" />
      <stop
         id="stop3384"
         offset="1"
         style="stop-color:#dfdfdf;stop-opacity:1;" />
    </linearGradient>
    <linearGradient
       id="linearGradient7422">
      <stop
         style="stop-color:#7c9fcf;stop-opacity:1"
         offset="0"
         id="stop7424" />
      <stop
         id="stop5348"
         offset="0.5"
         style="stop-color:#7c9ece;stop-opacity:1" />
      <stop
         id="stop7426"
         offset="1"
         style="stop-color:#7b9dcf;stop-opacity:1" />
    </linearGradient>
    <linearGradient
       id="linearGradient3369-3">
      <stop
         id="stop3372-6"
         offset="0"
         style="stop-color:#ffffff;stop-opacity:1;" />
      <stop
         style="stop-color:#ffffff;stop-opacity:1;"
         offset="0.4375"
         id="stop3374-7" />
      <stop
         style="stop-color:#f1f1f1;stop-opacity:1;"
         offset="0.71875"
         id="stop3376-5" />
      <stop
         id="stop3378-3"
         offset="0.84375"
         style="stop-color:#eaeaea;stop-opacity:1;" />
      <stop
         id="stop3384-5"
         offset="1"
         style="stop-color:#dfdfdf;stop-opacity:1;" />
    </linearGradient>
    <linearGradient
       inkscape:collect="always"
       xlink:href="#linearGradient7422"
       id="linearGradient1061"
       x1="8.0039053"
       y1="64.000977"
       x2="119.99414"
       y2="64.000977"
       gradientUnits="userSpaceOnUse" />
    <linearGradient
       inkscape:collect="always"
       xlink:href="#linearGradient3369"
       id="linearGradient1069"
       x1="64"
       y1="128"
       x2="64"
       y2="0"
       gradientUnits="userSpaceOnUse" />
  </defs>
  <sodipodi:namedview
     pagecolor="#ffffff"
     bordercolor="#666666"
     borderopacity="1"
     objecttolerance="10"
     gridtolerance="10"
     guidetolerance="10"
     inkscape:pageopacity="0"
     inkscape:pageshadow="2"
     inkscape:window-width="1366"
     inkscape:window-height="706"
     id="namedview33"
     showgrid="true"
     inkscape:zoom="2"
     inkscape:cx="58.038142"
     inkscape:cy="91.650436"
     inkscape:window-x="0"
     inkscape:window-y="0"
     inkscape:window-maximized="1"
     inkscape:current-layer="svg31"
     inkscape:snap-global="true">
    <inkscape:grid
       type="xygrid"
       id="grid844"
       spacingx="8"
       spacingy="8"
       empspacing="2" />
  </sodipodi:namedview>
  <linearGradient
     id="a">
    <stop
       offset="0"
       stop-color="#f9f9fa"
       id="stop2" />
    <stop
       offset="1"
       stop-color="#f9f9fa"
       stop-opacity="0"
       id="stop4" />
  </linearGradient>
  <linearGradient
     id="b"
     gradientUnits="userSpaceOnUse"
     x1="42.276669"
     x2="-13.469376"
     xlink:href="#a"
     y1="50.867565"
     y2="104.97279" />
  <linearGradient
     id="c"
     gradientUnits="userSpaceOnUse"
     x1="-1.817377"
     x2="2.172436"
     xlink:href="#a"
     y1="55.003803"
     y2="116.784" />
  <path
     sodipodi:type="inkscape:offset"
     inkscape:radius="7.9945006"
     inkscape:original="M 45.998047 16 L 15.998047 46 L 16.017578 83.900391 L 45.998047 112.00195 L 82 112.00195 L 112 82.001953 L 112 46 L 82 16 L 45.998047 16 z "
     style="fill:url(#linearGradient1061);fill-opacity:1.0;stroke:none;stroke-width:2.97326565;stroke-linecap:round;stroke-linejoin:bevel;stroke-opacity:0.73039198"
     id="path1051"
     d="m 45.998047,8.0058594 a 7.9953001,7.9953001 0 0 0 -5.652344,2.3417966 l -30,30 a 7.9953001,7.9953001 0 0 0 -2.3417968,5.65625 l 0.019531,37.900391 a 7.9953001,7.9953001 0 0 0 2.5273435,5.828125 L 40.53125,117.83398 a 7.9953001,7.9953001 0 0 0 5.466797,2.16211 H 82 a 7.9953001,7.9953001 0 0 0 5.652344,-2.34179 L 117.65234,87.654297 a 7.9953001,7.9953001 0 0 0 2.3418,-5.652344 V 46 a 7.9953001,7.9953001 0 0 0 -2.3418,-5.652344 l -29.999996,-30 A 7.9953001,7.9953001 0 0 0 82,8.0058594 Z" />
  <path
     inkscape:connector-curvature="0"
     d="M 81.999437,112.0018 H 45.998763 L 16.018491,83.900885 15.9982,46.000563 45.998763,16 H 81.999437 L 112,46.000563 v 36.000675 z"
     style="fill:url(#linearGradient1069);fill-opacity:1;stroke:none;stroke-width:2.97326565;stroke-linecap:round;stroke-linejoin:bevel;stroke-opacity:0.73039198"
     id="path7-3"
     sodipodi:nodetypes="ccccccccc" />
</svg>
